app/img/main-block-image-4.svg

<svg width="64" height="64" viewBox="0 0 64 64" fill="none" xmlns="http://www.w3.org/2000/svg">
<rect width="64" height="64" rx="18" fill="white"/>
<path d="M38.8789 48.5H25.8164V52.625H38.8789V48.5Z" fill="black"/>
<path d="M38.8789 48.5H25.8164V52.625H38.8789V48.5Z" fill="url(#paint0_linear)"/>
<path d="M20.4309 11.686L11.1943 20.9226L13.625 23.3533L22.8616 14.1167L20.4309 11.686Z" fill="black"/>
<path d="M20.4309 11.686L11.1943 20.9226L13.625 23.3533L22.8616 14.1167L20.4309 11.686Z" fill="url(#paint1_linear)"/>
<path d="M43.7647 11.5962L41.334 14.0269L50.5706 23.2635L53.0013 20.8328L43.7647 11.5962Z" fill="black"/>
<path d="M43.7647 11.5962L41.334 14.0269L50.5706 23.2635L53.0013 20.8328L43.7647 11.5962Z" fill="url(#paint2_linear)"/>
<path d="M40.6328 16.6733L38.7825 16.5949C38.2489 16.5196 37.7052 16.5693 37.1942 16.7401C36.6832 16.9109 36.2188 17.1982 35.8378 17.5792L32.0535 21.3635L28.0979 17.4079C27.7545 17.0724 27.326 16.8368 26.8587 16.7267C26.3913 16.6166 25.9028 16.6361 25.4457 16.783C25.0144 16.9142 24.5557 16.9257 24.1184 16.8163C23.6811 16.7069 23.2818 16.4808 22.9631 16.1621L22.3761 15.5751L15.084 22.8671L16.272 24.0551L16.1936 25.9053C16.1182 26.4388 16.168 26.9826 16.3388 27.4936C16.5096 28.0046 16.7968 28.469 17.1778 28.85L23.7863 35.4585C23.8747 34.591 24.2903 33.7898 24.9487 33.218L22.8897 31.159L23.3758 30.6729L25.5264 32.8235C25.8313 32.65 26.1611 32.5246 26.5043 32.4519V29.9123L25.3203 28.7283L25.8064 28.2422L26.5043 28.94V25.262C26.4967 24.6541 26.7124 24.0645 27.1107 23.6051C27.5089 23.1457 28.062 22.8485 28.6648 22.7698C28.8922 22.7478 29.1216 22.7581 29.346 22.8006L28.5007 21.9553L28.9869 21.4692L30.2217 22.7041C30.4404 22.2803 30.7788 21.9301 31.1947 21.6969C31.6107 21.4637 32.0859 21.3577 32.5616 21.3921C33.1355 21.4592 33.668 21.7249 34.0666 22.1433C34.4653 22.5617 34.705 23.1063 34.7442 23.6829C35.135 23.4971 35.568 23.4184 35.9991 23.4546C36.6117 23.528 37.1752 23.8262 37.5804 24.2915C37.9856 24.7569 38.2035 25.3561 38.1918 25.973V28.3269C38.8175 28.4575 39.3944 28.76 39.8578 29.2002C40.3212 29.6404 40.6528 30.201 40.8154 30.8192L42.7325 28.9021L43.2186 29.3883L40.9393 31.6675C40.9394 31.6769 40.9418 31.6857 40.9418 31.6952V33.9778C41.5595 33.9131 42.1365 33.6394 42.5773 33.2019L47.2799 28.4993C47.6155 28.1559 47.851 27.7274 47.9611 27.2601C48.0712 26.7927 48.0517 26.3042 47.9048 25.8471C47.7736 25.4158 47.7621 24.9571 47.8715 24.5198C47.9809 24.0825 48.207 23.6832 48.5257 23.3645L49.1128 22.7774L41.8207 15.4854L40.6328 16.6733Z" fill="black"/>
<path d="M40.6328 16.6733L38.7825 16.5949C38.2489 16.5196 37.7052 16.5693 37.1942 16.7401C36.6832 16.9109 36.2188 17.1982 35.8378 17.5792L32.0535 21.3635L28.0979 17.4079C27.7545 17.0724 27.326 16.8368 26.8587 16.7267C26.3913 16.6166 25.9028 16.6361 25.4457 16.783C25.0144 16.9142 24.5557 16.9257 24.1184 16.8163C23.6811 16.7069 23.2818 16.4808 22.9631 16.1621L22.3761 15.5751L15.084 22.8671L16.272 24.0551L16.1936 25.9053C16.1182 26.4388 16.168 26.9826 16.3388 27.4936C16.5096 28.0046 16.7968 28.469 17.1778 28.85L23.7863 35.4585C23.8747 34.591 24.2903 33.7898 24.9487 33.218L22.8897 31.159L23.3758 30.6729L25.5264 32.8235C25.8313 32.65 26.1611 32.5246 26.5043 32.4519V29.9123L25.3203 28.7283L25.8064 28.2422L26.5043 28.94V25.262C26.4967 24.6541 26.7124 24.0645 27.1107 23.6051C27.5089 23.1457 28.062 22.8485 28.6648 22.7698C28.8922 22.7478 29.1216 22.7581 29.346 22.8006L28.5007 21.9553L28.9869 21.4692L30.2217 22.7041C30.4404 22.2803 30.7788 21.9301 31.1947 21.6969C31.6107 21.4637 32.0859 21.3577 32.5616 21.3921C33.1355 21.4592 33.668 21.7249 34.0666 22.1433C34.4653 22.5617 34.705 23.1063 34.7442 23.6829C35.135 23.4971 35.568 23.4184 35.9991 23.4546C36.6117 23.528 37.1752 23.8262 37.5804 24.2915C37.9856 24.7569 38.2035 25.3561 38.1918 25.973V28.3269C38.8175 28.4575 39.3944 28.76 39.8578 29.2002C40.3212 29.6404 40.6528 30.201 40.8154 30.8192L42.7325 28.9021L43.2186 29.3883L40.9393 31.6675C40.9394 31.6769 40.9418 31.6857 40.9418 31.6952V33.9778C41.5595 33.9131 42.1365 33.6394 42.5773 33.2019L47.2799 28.4993C47.6155 28.1559 47.851 27.7274 47.9611 27.2601C48.0712 26.7927 48.0517 26.3042 47.9048 25.8471C47.7736 25.4158 47.7621 24.9571 47.8715 24.5198C47.9809 24.0825 48.207 23.6832 48.5257 23.3645L49.1128 22.7774L41.8207 15.4854L40.6328 16.6733Z" fill="url(#paint3_linear)"/>
<path d="M30.5425 24.9115C30.4903 24.4648 30.2644 24.0567 29.9138 23.7751C29.5632 23.4936 29.1159 23.3613 28.6685 23.4068C28.2346 23.4666 27.8378 23.6839 27.5535 24.0172C27.2693 24.3506 27.1175 24.7767 27.127 25.2146V33.0228C26.3976 33.0228 25.6981 33.3126 25.1824 33.8283C24.6667 34.344 24.377 35.0435 24.377 35.7728V42.4233C24.3825 42.9035 24.519 43.373 24.7716 43.7813C25.0242 44.1896 25.3834 44.5213 25.8105 44.7406C26.2082 44.9528 26.5407 45.2691 26.7726 45.6556C27.0045 46.0421 27.127 46.4844 27.127 46.9351V47.7653H37.4395V46.0853L38.8032 44.8324C39.2337 44.5084 39.5831 44.0888 39.8236 43.6067C40.0642 43.1245 40.1895 42.5931 40.1895 42.0543V31.6478C40.1895 30.9185 39.8997 30.219 39.384 29.7033C38.8683 29.1876 38.1688 28.8978 37.4395 28.8978V25.9261C37.4511 25.4811 37.2977 25.0475 37.0088 24.7089C36.7199 24.3703 36.3159 24.1506 35.8746 24.0921C35.4415 24.0538 35.0101 24.1816 34.6677 24.4496C34.3253 24.7175 34.0975 25.1056 34.0305 25.5352H34.3457V36.1525H33.6582V25.5352H34.002V23.8636C34.0136 23.4186 33.8602 22.985 33.5713 22.6464C33.2824 22.3078 32.8784 22.0881 32.4371 22.0296C32.1994 22.0083 31.9598 22.0367 31.7337 22.113C31.5075 22.1893 31.2997 22.3119 31.1236 22.473C30.9474 22.634 30.8067 22.83 30.7105 23.0484C30.6142 23.2668 30.5645 23.5029 30.5645 23.7416V24.9115H30.9082V35.5288H30.2207V24.9115H30.5425ZM27.4014 38.9025H26.7139V33.4025H27.4014V38.9025ZM37.0957 29.1113H37.7832V36.2911H37.0957V29.1113Z" fill="black"/>
<path d="M30.5425 24.9115C30.4903 24.4648 30.2644 24.0567 29.9138 23.7751C29.5632 23.4936 29.1159 23.3613 28.6685 23.4068C28.2346 23.4666 27.8378 23.6839 27.5535 24.0172C27.2693 24.3506 27.1175 24.7767 27.127 25.2146V33.0228C26.3976 33.0228 25.6981 33.3126 25.1824 33.8283C24.6667 34.344 24.377 35.0435 24.377 35.7728V42.4233C24.3825 42.9035 24.519 43.373 24.7716 43.7813C25.0242 44.1896 25.3834 44.5213 25.8105 44.7406C26.2082 44.9528 26.5407 45.2691 26.7726 45.6556C27.0045 46.0421 27.127 46.4844 27.127 46.9351V47.7653H37.4395V46.0853L38.8032 44.8324C39.2337 44.5084 39.5831 44.0888 39.8236 43.6067C40.0642 43.1245 40.1895 42.5931 40.1895 42.0543V31.6478C40.1895 30.9185 39.8997 30.219 39.384 29.7033C38.8683 29.1876 38.1688 28.8978 37.4395 28.8978V25.9261C37.4511 25.4811 37.2977 25.0475 37.0088 24.7089C36.7199 24.3703 36.3159 24.1506 35.8746 24.0921C35.4415 24.0538 35.0101 24.1816 34.6677 24.4496C34.3253 24.7175 34.0975 25.1056 34.0305 25.5352H34.3457V36.1525H33.6582V25.5352H34.002V23.8636C34.0136 23.4186 33.8602 22.985 33.5713 22.6464C33.2824 22.3078 32.8784 22.0881 32.4371 22.0296C32.1994 22.0083 31.9598 22.0367 31.7337 22.113C31.5075 22.1893 31.2997 22.3119 31.1236 22.473C30.9474 22.634 30.8067 22.83 30.7105 23.0484C30.6142 23.2668 30.5645 23.5029 30.5645 23.7416V24.9115H30.9082V35.5288H30.2207V24.9115H30.5425ZM27.4014 38.9025H26.7139V33.4025H27.4014V38.9025ZM37.0957 29.1113H37.7832V36.2911H37.0957V29.1113Z" fill="url(#paint4_linear)"/>
<defs>
<linearGradient id="paint0_linear" x1="32.3477" y1="48.5" x2="32.3477" y2="52.625" gradientUnits="userSpaceOnUse">
<stop stop-color="#EF8080"/>
<stop offset="1" stop-color="#F0145A"/>
</linearGradient>
<linearGradient id="paint1_linear" x1="15.8126" y1="16.3043" x2="18.2433" y2="18.735" gradientUnits="userSpaceOnUse">
<stop stop-color="#EF8080"/>
<stop offset="1" stop-color="#F0145A"/>
</linearGradient>
<linearGradient id="paint2_linear" x1="42.5493" y1="12.8115" x2="51.7859" y2="22.0481" gradientUnits="userSpaceOnUse">
<stop stop-color="#EF8080"/>
<stop offset="1" stop-color="#F0145A"/>
</linearGradient>
<linearGradient id="paint3_linear" x1="32.0984" y1="15.4854" x2="32.0984" y2="35.4585" gradientUnits="userSpaceOnUse">
<stop stop-color="#EF8080"/>
<stop offset="1" stop-color="#F0145A"/>
</linearGradient>
<linearGradient id="paint4_linear" x1="32.2832" y1="22.0227" x2="32.2832" y2="47.7653" gradientUnits="userSpaceOnUse">
<stop stop-color="#EF8080"/>
<stop offset="1" stop-color="#F0145A"/>
</linearGradient>
</defs>
</svg>

<svg width="64" height="64" fill="none" xmlns="http://www.w3.org/2000/svg"><rect width="64" height="64" rx="18" fill="#fff"/><path d="M38.879 48.5H25.816v4.125H38.88V48.5z" fill="#000"/><path d="M38.879 48.5H25.816v4.125H38.88V48.5z" fill="url(#paint0_linear)"/><path d="M20.43 11.686l-9.236 9.237 2.431 2.43 9.237-9.236-2.431-2.431z" fill="#000"/><path d="M20.43 11.686l-9.236 9.237 2.431 2.43 9.237-9.236-2.431-2.431z" fill="url(#paint1_linear)"/><path d="M43.765 11.596l-2.431 2.43 9.237 9.238L53 20.832l-9.236-9.237z" fill="#000"/><path d="M43.765 11.596l-2.431 2.43 9.237 9.238L53 20.832l-9.236-9.237z" fill="url(#paint2_linear)"/><path d="M40.633 16.673l-1.85-.078a3.477 3.477 0 00-2.945.984l-3.785 3.784-3.955-3.955a2.64 2.64 0 00-2.652-.625 2.487 2.487 0 01-2.483-.62l-.587-.588-7.292 7.292 1.188 1.188-.078 1.85a3.476 3.476 0 00.984 2.945l6.608 6.608a3.428 3.428 0 011.163-2.24l-2.06-2.059.487-.486 2.15 2.15c.305-.173.635-.298.978-.371v-2.54l-1.184-1.184.486-.486.698.698v-3.678a2.482 2.482 0 012.16-2.492c.228-.022.458-.012.682.03l-.845-.845.486-.486 1.235 1.235a2.435 2.435 0 012.34-1.312 2.476 2.476 0 012.182 2.29c.391-.185.824-.264 1.255-.227a2.49 2.49 0 012.193 2.518v2.354a3.44 3.44 0 012.623 2.492l1.918-1.917.486.486-2.28 2.28.003.027v2.283a2.724 2.724 0 001.635-.776l4.703-4.703a2.639 2.639 0 00.625-2.652 2.487 2.487 0 01.62-2.483l.588-.587-7.292-7.292-1.188 1.188z" fill="#000"/><path d="M40.633 16.673l-1.85-.078a3.477 3.477 0 00-2.945.984l-3.785 3.784-3.955-3.955a2.64 2.64 0 00-2.652-.625 2.487 2.487 0 01-2.483-.62l-.587-.588-7.292 7.292 1.188 1.188-.078 1.85a3.476 3.476 0 00.984 2.945l6.608 6.608a3.428 3.428 0 011.163-2.24l-2.06-2.059.487-.486 2.15 2.15c.305-.173.635-.298.978-.371v-2.54l-1.184-1.184.486-.486.698.698v-3.678a2.482 2.482 0 012.16-2.492c.228-.022.458-.012.682.03l-.845-.845.486-.486 1.235 1.235a2.435 2.435 0 012.34-1.312 2.476 2.476 0 012.182 2.29c.391-.185.824-.264 1.255-.227a2.49 2.49 0 012.193 2.518v2.354a3.44 3.44 0 012.623 2.492l1.918-1.917.486.486-2.28 2.28.003.027v2.283a2.724 2.724 0 001.635-.776l4.703-4.703a2.639 2.639 0 00.625-2.652 2.487 2.487 0 01.62-2.483l.588-.587-7.292-7.292-1.188 1.188z" fill="url(#paint3_linear)"/><path d="M30.543 24.912a1.713 1.713 0 00-1.874-1.505 1.786 1.786 0 00-1.542 1.808v7.808a2.75 2.75 0 00-2.75 2.75v6.65a2.639 2.639 0 001.434 2.318 2.488 2.488 0 011.316 2.194v.83H37.44v-1.68l1.363-1.253a3.477 3.477 0 001.387-2.778V31.648a2.75 2.75 0 00-2.75-2.75v-2.972a1.803 1.803 0 00-1.565-1.834 1.713 1.713 0 00-1.844 1.443h.315v10.618h-.688V25.535h.344v-1.671a1.803 1.803 0 00-1.565-1.834 1.72 1.72 0 00-1.872 1.712v1.17h.343v10.617h-.687V24.91h.322zM27.4 38.901h-.687v-5.5h.687v5.5zm9.695-9.79h.687v7.18h-.687v-7.18z" fill="#000"/><path d="M30.543 24.912a1.713 1.713 0 00-1.874-1.505 1.786 1.786 0 00-1.542 1.808v7.808a2.75 2.75 0 00-2.75 2.75v6.65a2.639 2.639 0 001.434 2.318 2.488 2.488 0 011.316 2.194v.83H37.44v-1.68l1.363-1.253a3.477 3.477 0 001.387-2.778V31.648a2.75 2.75 0 00-2.75-2.75v-2.972a1.803 1.803 0 00-1.565-1.834 1.713 1.713 0 00-1.844 1.443h.315v10.618h-.688V25.535h.344v-1.671a1.803 1.803 0 00-1.565-1.834 1.72 1.72 0 00-1.872 1.712v1.17h.343v10.617h-.687V24.91h.322zM27.4 38.901h-.687v-5.5h.687v5.5zm9.695-9.79h.687v7.18h-.687v-7.18z" fill="url(#paint4_linear)"/><defs><linearGradient id="paint0_linear" x1="32.348" y1="48.5" x2="32.348" y2="52.625" gradientUnits="userSpaceOnUse"><stop stop-color="#EF8080"/><stop offset="1" stop-color="#F0145A"/></linearGradient><linearGradient id="paint1_linear" x1="15.813" y1="16.304" x2="18.243" y2="18.735" gradientUnits="userSpaceOnUse"><stop stop-color="#EF8080"/><stop offset="1" stop-color="#F0145A"/></linearGradient><linearGradient id="paint2_linear" x1="42.549" y1="12.812" x2="51.786" y2="22.048" gradientUnits="userSpaceOnUse"><stop stop-color="#EF8080"/><stop offset="1" stop-color="#F0145A"/></linearGradient><linearGradient id="paint3_linear" x1="32.098" y1="15.485" x2="32.098" y2="35.459" gradientUnits="userSpaceOnUse"><stop stop-color="#EF8080"/><stop offset="1" stop-color="#F0145A"/></linearGradient><linearGradient id="paint4_linear" x1="32.283" y1="22.023" x2="32.283" y2="47.765" gradientUnits="userSpaceOnUse"><stop stop-color="#EF8080"/><stop offset="1" stop-color="#F0145A"/></linearGradient></defs></svg>
